X: 16
T:Gipsy's Hornpipe
% Nottingham Music Database
S:Kevin Briggs
M:4/4
L:1/8
R:Hornpipe
K:G
P:A
d2|"G"gfed edBd|"C"ed(3efg "G"B2BA|"Em"GFGA BABd|"Am"e2A2 "D7"A2(3def|
"G"gfed edBd|"C"ed(3efg "G"B2BA|"G"GFGA "D"BcBA|"Em"G2E2 E2:|
P:B
gf|"Em"e2B2 B2gf|"Em"e2B2 B2gf|"Em"edef "B7"gfga|"Em"b2e2 "D7"e2ga|
"G"bgaf g2gf|"C"ed(3efg "G"B2BA|"G"GFGA "D"BcBA|"Em"G2E2 E2:|<end>
<start>
